X: 1
T: Billy Brocker's
M: 4/4
L: 1/8
R: reel
D: Barry Kerr - The Three Sisters
K: Dmaj
dB|:AF~F2 ~A2dB|BAFA ~G3B|AF~F2 ~A2Bd|1 efge fedB:|2 efge fedA||
dAAd faad|eAAd eAAB|defd faaf|gfeg fdef|
defd faad|eAAd eAAd|f2~f2 ~g2fg|af~f2 fedB||
